X:1
T:O God of hosts, the mighty Lord
T:John Broderip (of Wells)
T:p39, A New Set of Anthems and Psalm Tunes, London: [1745]
T:This edition by Edmund Gooch released into the public domain, May 2010. As such, it may be freely copied and performed.
T:O God of hosts, the mighty Lord
T:Psalm the 84th. New Ver.
C:John Broderip
C:(of Wells)
Z:p39, A New Set of
Z:Anthems and Psalm
Z:Tunes, London: [1745]
%%score [ 1 2 3 4 ]
L:1/8
M:3/2
K:G
V:1 treble nm="Soprano" snm="S."
V:2 treble nm="Alto" snm="A."
V:3 treble-8 transpose=-12 nm="Tenor" snm="T."
V:4 bass nm="Bass" snm="B."
V:1
 G4 | d8 e4 | (d4 c4) B4 | (c4 B4) A4 | G8 B4 | B8 B4 | (B4 e4) (f2 e2) | ^d8 e4 | (d4 c4) B4 | %9
w: The|birds, more|hap- * py|far _ than|I, A-|round thy|tem- * ple _|throng; Se-|cure- * ly|
w: O|God of|hosts, _ the|migh- * ty|Lord, How|love- ly|is _ the _|place Where|thou, _ en-|
w: My|long- ing|soul _ faints|with _ de-|sire To|view thy|blest _ a- *|bode; My|pant- * ing|
 (d4 c4) B4 | (e4 d4) (c2 B2) | A8 B4 | c8 B4 | (A2 G2) (G4 F4) | G8 |] %15
w: there _ they|build, _ and _|there Se-|cure- ly|hatch _ their _|young.|
w: throned _ in|glo- * ry _|shew’st The|bright- ness|of _ thy _|face.|
w: heart _ and|flesh _ cry _|out For|thee, the|liv- * ing _|God.|
V:2
 D4 | D8 G4 | G8 G4 | (A4 G4) F4 | G8 G4 | F8 E4 | E8 (A2 G2) | F8 G4 | F8 D4 | D8 G4 | %10
w: The|birds, more|hap- py|far _ than|I, A-|round thy|tem- ple _|throng; Se-|cure- ly|there they|
w: O|God of|hosts, the|migh- * ty|Lord, How|love- ly|is the _|place Where|thou, en-|throned in|
w: My|long- ing|soul faints|with _ de-|sire To|view thy|blest a- *|bode; My|pant- ing|heart and|
 (A4 G4) G4 | F8 D4 | G8 G4 | E4 D8 | B,8 |] %15
w: build, _ and|there Se-|cure- ly|hatch their|young.|
w: glo- * ry|shew’st The|bright- ness|of thy|face.|
w: flesh _ cry|out For|thee, the|liv- ing|God.|
V:3
 B4 | A8 c4 | (B2 A2 G4) d4 | d8 (d2 c2) | B8 e4 | (^d2 ^c2 B2 A2) G4 | (G4 A4) A4 | B8 B4 | %8
w: The|birds, more|hap- * * py|far than _|I, A-|round _ _ _ thy|tem- * ple|throng; Se-|
w: O|God of|hosts, _ _ the|migh- ty _|Lord, How|love- * * * ly|is _ the|place Where|
w: My|long- ing|soul _ _ faints|with de- *|sire To|view _ _ _ thy|blest _ a-|bode; My|
 A8 B4 | (B4 A4) G4 | (c4 d4) e4 | F8 B4 | e8 d4 | (c2 B2) (B4 A4) | G8 |] %15
w: cure- ly|there _ they|build, _ and|there Se-|cure- ly|hatch _ their _|young.|
w: thou, en-|throned _ in|glo- * ry|shew’st The|bright- ness|of _ thy _|face.|
w: pant- ing|heart _ and|flesh _ cry|out For|thee, the|liv- * ing _|God.|
V:4
 G,4 | F,8 E,4 | (B,,4 C,4) G,,4 | D,8 D,4 | G,,8 (G,2 A,2) | (B,4 ^D,4) E,4 | C,8 C,4 | B,,8 E,4 | %8
w: The|birds, more|hap- * py|far than|I, A- *|round _ thy|tem- ple|throng; Se-|
w: O|God of|hosts, _ the|migh- ty|Lord, How _|love- * ly|is the|place Where|
w: My|long- ing|soul _ faints|with de-|sire To _|view _ thy|blest a-|bode; My|
"^Emendations: Original clefs treble, alto, tenor, bass. The first verse only of the text is given in the source." F,8 G,4 | %9
w: cure- ly|
w: thou, en-|
w: pant- ing|
 D,8 E,4 | (A,,4 B,,4) C,4 | D,8 G,,4 | (E,4 F,4) G,4 | C,4 D,8 | G,,8 |] %15
w: there they|build, _ and|there Se-|cure- * ly|hatch their|young.|
w: throned in|glo- * ry|shew’st The|bright- * ness|of thy|face.|
w: heart and|flesh _ cry|out For|thee, _ the|liv- ing|God.|

